logo/text-logo.svg

<svg width="373" height="137" viewBox="0 0 373 137" fill="none" xmlns="http://www.w3.org/2000/svg">
<path d="M21.248 7.014H4.814V130.186H24.734V51.004V50.506C24.734 50.2847 24.7893 50.008 24.9 49.676C25.1213 49.344 25.3427 49.1227 25.564 49.012C26.1173 48.68 26.394 48.514 26.394 48.514H27.39C27.6113 48.514 27.888 48.6247 28.22 48.846C28.552 48.9567 28.7733 49.178 28.884 49.51L29.216 49.676L66.068 120.06L68.724 124.21C70.052 126.313 71.546 127.862 73.206 128.858C74.9767 129.743 77.6327 130.186 81.174 130.186H89.474C90.138 130.186 90.6913 130.463 91.134 131.016C91.5767 131.459 91.798 132.012 91.798 132.676C91.798 133.34 91.5767 133.893 91.134 134.336C90.6913 134.779 90.138 135 89.474 135H81.174C77.19 135 73.87 134.391 71.214 133.174C68.6687 131.846 66.4553 129.688 64.574 126.7L61.918 122.716V122.55L29.548 60.466V132.676C29.548 133.34 29.2713 133.893 28.718 134.336C28.2753 134.779 27.722 135 27.058 135H2.324C1.66 135 1.10667 134.779 0.664 134.336C0.221333 133.893 0 133.34 0 132.676V4.524C0 3.85999 0.221333 3.30666 0.664 2.86399C1.10667 2.42133 1.66 2.2 2.324 2.2H21.248C24.0147 2.2 26.394 2.64266 28.386 3.52799C30.4887 4.30266 32.1487 5.35399 33.366 6.68199C34.694 8.00999 35.9667 9.78066 37.184 11.994L87.15 102.464V7.014H66.4V34.902C66.4 35.566 66.1787 36.1193 65.736 36.562C65.2933 37.0047 64.74 37.226 64.076 37.226C63.6333 37.226 63.1907 37.1153 62.748 36.894C62.416 36.6727 62.1393 36.396 61.918 36.064C61.6967 35.732 61.586 35.3447 61.586 34.902V4.524C61.586 3.85999 61.8073 3.30666 62.25 2.86399C62.8033 2.42133 63.412 2.2 64.076 2.2H89.474C90.138 2.2 90.6913 2.42133 91.134 2.86399C91.5767 3.30666 91.798 3.85999 91.798 4.524V111.594V112.092C91.798 112.313 91.6873 112.59 91.466 112.922C91.3553 113.254 91.134 113.475 90.802 113.586C90.802 113.586 90.7467 113.641 90.636 113.752C90.304 113.973 90.0827 114.084 89.972 114.084H89.308C88.976 114.084 88.644 113.973 88.312 113.752C87.8693 113.531 87.5927 113.309 87.482 113.088L87.316 112.756L33.034 14.318C31.4847 11.5513 29.88 9.66999 28.22 8.67399C26.6707 7.56733 24.3467 7.014 21.248 7.014ZM173.029 135H110.613C109.949 135 109.396 134.779 108.953 134.336C108.51 133.893 108.289 133.34 108.289 132.676V90.346V90.18C108.289 86.3067 109.672 82.9867 112.439 80.22C115.206 77.3427 118.581 75.8487 122.565 75.738H122.897H161.907V59.138H135.347C134.683 59.138 134.13 58.9167 133.687 58.474C133.244 58.0313 133.023 57.478 133.023 56.814V27.1C133.023 26.436 133.244 25.8827 133.687 25.44C134.13 24.8867 134.683 24.61 135.347 24.61H170.705V7.014H113.103V68.102C113.103 68.766 112.826 69.3193 112.273 69.762C111.83 70.094 111.277 70.26 110.613 70.26C109.949 70.26 109.396 70.094 108.953 69.762C108.51 69.3193 108.289 68.766 108.289 68.102V4.524C108.289 3.85999 108.51 3.30666 108.953 2.86399C109.396 2.42133 109.949 2.2 110.613 2.2H173.029C173.693 2.2 174.246 2.42133 174.689 2.86399C175.242 3.30666 175.519 3.85999 175.519 4.524V27.1C175.519 27.764 175.242 28.3173 174.689 28.76C174.246 29.2027 173.693 29.424 173.029 29.424H137.837V54.324H164.231C164.674 54.324 165.061 54.4347 165.393 54.656C165.725 54.8773 166.002 55.2093 166.223 55.652C166.444 55.984 166.555 56.3713 166.555 56.814V78.228C166.555 78.892 166.334 79.4453 165.891 79.888C165.448 80.22 164.895 80.386 164.231 80.386H123.229C121.348 80.386 119.632 80.8287 118.083 81.714C116.534 82.5993 115.316 83.8167 114.431 85.366C113.546 86.9153 113.103 88.5753 113.103 90.346V90.512V130.186H170.705V112.59H135.347C134.904 112.59 134.517 112.479 134.185 112.258C133.853 112.037 133.576 111.76 133.355 111.428C133.134 110.985 133.023 110.543 133.023 110.1V93.666C133.023 93.002 133.244 92.4487 133.687 92.006C134.13 91.5633 134.683 91.342 135.347 91.342C136.011 91.342 136.564 91.5633 137.007 92.006C137.56 92.4487 137.837 93.002 137.837 93.666V107.776H173.029C173.693 107.776 174.246 107.997 174.689 108.44C175.242 108.883 175.519 109.436 175.519 110.1V132.676C175.519 133.34 175.242 133.893 174.689 134.336C174.246 134.779 173.693 135 173.029 135ZM232.952 136.992H232.62C230.075 136.992 227.751 136.66 225.648 135.996C223.546 135.443 221.775 134.613 220.336 133.506C219.008 132.289 217.846 131.127 216.85 130.02C215.854 128.913 215.024 127.585 214.36 126.036C213.807 124.376 213.364 123.159 213.032 122.384C212.811 121.499 212.534 120.392 212.202 119.064L212.036 118.068C210.93 113.088 210.487 99.642 210.708 77.73V70.426C210.708 50.506 211.594 38.056 213.364 33.076C215.578 26.436 219.174 23.116 224.154 23.116C227.253 23.116 229.688 23.8907 231.458 25.44C233.229 26.9893 234.723 29.59 235.94 33.242C237.49 38.3327 238.264 49.842 238.264 67.77C238.264 85.034 237.822 96.2667 236.936 101.468C235.83 107.887 233.561 111.981 230.13 113.752C228.692 114.416 227.64 114.029 226.976 112.59C226.312 111.041 226.644 109.989 227.972 109.436C230.075 108.329 231.458 105.397 232.122 100.638C233.118 94.4407 233.616 83.4847 233.616 67.77C233.616 50.6167 232.842 39.6053 231.292 34.736C230.518 32.08 229.577 30.3093 228.47 29.424C227.474 28.5387 226.036 28.096 224.154 28.096C222.937 28.096 221.775 28.5387 220.668 29.424C219.672 30.3093 218.732 32.0247 217.846 34.57C216.186 39.218 215.356 51.17 215.356 70.426C215.356 70.9793 215.356 72.086 215.356 73.746C215.356 75.406 215.356 76.734 215.356 77.73C215.135 98.978 215.578 112.092 216.684 117.072L217.016 117.902C217.348 119.562 217.625 120.835 217.846 121.72C218.178 122.495 218.732 123.657 219.506 125.206C220.281 126.755 221.166 127.973 222.162 128.858C223.158 129.633 224.597 130.352 226.478 131.016C228.36 131.68 230.518 132.012 232.952 132.012H233.284C237.932 132.012 242.027 130.186 245.568 126.534C249.11 122.771 251.821 117.791 253.702 111.594C255.694 105.397 257.188 98.812 258.184 91.84C259.18 84.868 259.678 77.564 259.678 69.928C259.678 55.2093 258.406 43.0913 255.86 33.574C253.426 23.946 249.608 16.808 244.406 12.16C239.316 7.51199 232.731 5.18799 224.652 5.18799C212.59 5.18799 203.681 10.2787 197.926 20.46C192.172 30.5307 189.294 46.2453 189.294 67.604C189.294 90.7333 192.504 108.053 198.922 119.562C199.033 119.562 199.199 119.783 199.42 120.226C199.752 120.669 200.084 121.167 200.416 121.72C200.748 122.273 201.136 122.827 201.578 123.38C202.021 123.823 202.187 124.376 202.076 125.04C202.076 125.704 201.855 126.257 201.412 126.7C200.97 127.143 200.361 127.364 199.586 127.364C198.922 127.253 198.424 126.977 198.092 126.534C196.986 125.206 195.934 123.712 194.938 122.052C187.966 109.879 184.48 91.7293 184.48 67.604C184.48 44.9173 187.8 28.0407 194.44 16.974C201.08 5.79666 211.151 0.207994 224.652 0.207994C229.079 0.207994 233.063 0.816659 236.604 2.03399C240.256 3.14066 243.355 4.80066 245.9 7.014C248.556 9.11666 250.88 11.5513 252.872 14.318C254.975 17.0847 256.69 20.294 258.018 23.946C259.346 27.4873 260.453 31.084 261.338 34.736C262.224 38.2773 262.888 42.206 263.33 46.522C263.773 50.7273 264.05 54.656 264.16 58.308C264.382 61.96 264.492 65.8333 264.492 69.928C264.492 78.4493 263.939 86.528 262.832 94.164C261.726 101.8 259.955 108.938 257.52 115.578C255.196 122.107 251.876 127.309 247.56 131.182C243.355 135.055 238.486 136.992 232.952 136.992ZM302.346 7.014H285.912V130.186H305.832V51.004V50.506C305.832 50.2847 305.887 50.008 305.998 49.676C306.219 49.344 306.44 49.1227 306.662 49.012C307.215 48.68 307.492 48.514 307.492 48.514H308.488C308.709 48.514 308.986 48.6247 309.318 48.846C309.65 48.9567 309.871 49.178 309.982 49.51L310.314 49.676L347.166 120.06L349.822 124.21C351.15 126.313 352.644 127.862 354.304 128.858C356.074 129.743 358.73 130.186 362.272 130.186H370.572C371.236 130.186 371.789 130.463 372.232 131.016C372.674 131.459 372.896 132.012 372.896 132.676C372.896 133.34 372.674 133.893 372.232 134.336C371.789 134.779 371.236 135 370.572 135H362.272C358.288 135 354.968 134.391 352.312 133.174C349.766 131.846 347.553 129.688 345.672 126.7L343.016 122.716V122.55L310.646 60.466V132.676C310.646 133.34 310.369 133.893 309.816 134.336C309.373 134.779 308.82 135 308.156 135H283.422C282.758 135 282.204 134.779 281.762 134.336C281.319 133.893 281.098 133.34 281.098 132.676V4.524C281.098 3.85999 281.319 3.30666 281.762 2.86399C282.204 2.42133 282.758 2.2 283.422 2.2H302.346C305.112 2.2 307.492 2.64266 309.484 3.52799C311.586 4.30266 313.246 5.35399 314.464 6.68199C315.792 8.00999 317.064 9.78066 318.282 11.994L368.248 102.464V7.014H347.498V34.902C347.498 35.566 347.276 36.1193 346.834 36.562C346.391 37.0047 345.838 37.226 345.174 37.226C344.731 37.226 344.288 37.1153 343.846 36.894C343.514 36.6727 343.237 36.396 343.016 36.064C342.794 35.732 342.684 35.3447 342.684 34.902V4.524C342.684 3.85999 342.905 3.30666 343.348 2.86399C343.901 2.42133 344.51 2.2 345.174 2.2H370.572C371.236 2.2 371.789 2.42133 372.232 2.86399C372.674 3.30666 372.896 3.85999 372.896 4.524V111.594V112.092C372.896 112.313 372.785 112.59 372.564 112.922C372.453 113.254 372.232 113.475 371.9 113.586C371.9 113.586 371.844 113.641 371.734 113.752C371.402 113.973 371.18 114.084 371.07 114.084H370.406C370.074 114.084 369.742 113.973 369.41 113.752C368.967 113.531 368.69 113.309 368.58 113.088L368.414 112.756L314.132 14.318C312.582 11.5513 310.978 9.66999 309.318 8.67399C307.768 7.56733 305.444 7.014 302.346 7.014Z" fill="#FF6A8E"/>
</svg>

<svg width="373" height="137" viewBox="0 0 373 137" fill="none" xmlns="http://www.w3.org/2000/svg"><path d="M21.248 7.014H4.814v123.172h19.92v-79.68c0-.221.055-.498.166-.83.221-.332.443-.553.664-.664l.83-.498h.996c.221 0 .498.11.83.332.332.11.553.332.664.664l.332.166 36.852 70.384 2.656 4.15c1.328 2.103 2.822 3.652 4.482 4.648 1.77.885 4.427 1.328 7.968 1.328h8.3c.664 0 1.217.277 1.66.83.443.443.664.996.664 1.66 0 .664-.221 1.217-.664 1.66-.443.443-.996.664-1.66.664h-8.3c-3.984 0-7.304-.609-9.96-1.826-2.545-1.328-4.759-3.486-6.64-6.474l-2.656-3.984v-.166l-32.37-62.084v72.21c0 .664-.277 1.217-.83 1.66-.443.443-.996.664-1.66.664H2.324c-.664 0-1.217-.221-1.66-.664-.443-.443-.664-.996-.664-1.66V4.524c0-.664.221-1.217.664-1.66.443-.443.996-.664 1.66-.664h18.924c2.767 0 5.146.443 7.138 1.328 2.103.775 3.763 1.826 4.98 3.154 1.328 1.328 2.6 3.099 3.818 5.312l49.966 90.47V7.014H66.4v27.888c0 .664-.221 1.217-.664 1.66-.443.443-.996.664-1.66.664-.443 0-.885-.11-1.328-.332a2.963 2.963 0 01-.83-.83 2.046 2.046 0 01-.332-1.162V4.524c0-.664.221-1.217.664-1.66.553-.443 1.162-.664 1.826-.664h25.398c.664 0 1.217.221 1.66.664.443.443.664.996.664 1.66v107.568c0 .221-.11.498-.332.83a.998.998 0 01-.664.664l-.166.166c-.332.221-.553.332-.664.332h-.664c-.332 0-.664-.111-.996-.332-.443-.221-.72-.443-.83-.664l-.166-.332-54.282-98.438c-1.55-2.767-3.154-4.648-4.814-5.644-1.55-1.107-3.873-1.66-6.972-1.66zM173.029 135h-62.416c-.664 0-1.217-.221-1.66-.664-.443-.443-.664-.996-.664-1.66V90.18c0-3.873 1.383-7.193 4.15-9.96 2.767-2.877 6.142-4.371 10.126-4.482h39.342v-16.6h-26.56c-.664 0-1.217-.221-1.66-.664-.443-.443-.664-.996-.664-1.66V27.1c0-.664.221-1.217.664-1.66.443-.553.996-.83 1.66-.83h35.358V7.014h-57.602v61.088c0 .664-.277 1.217-.83 1.66-.443.332-.996.498-1.66.498-.664 0-1.217-.166-1.66-.498-.443-.443-.664-.996-.664-1.66V4.524c0-.664.221-1.217.664-1.66.443-.443.996-.664 1.66-.664h62.416c.664 0 1.217.221 1.66.664.553.443.83.996.83 1.66V27.1c0 .664-.277 1.217-.83 1.66-.443.443-.996.664-1.66.664h-35.192v24.9h26.394c.443 0 .83.11 1.162.332.332.221.609.553.83.996.221.332.332.72.332 1.162v21.414c0 .664-.221 1.217-.664 1.66-.443.332-.996.498-1.66.498h-41.002c-1.881 0-3.597.443-5.146 1.328a9.645 9.645 0 00-3.652 3.652 9.878 9.878 0 00-1.328 4.98v39.84h57.602V112.59h-35.358c-.443 0-.83-.111-1.162-.332a2.955 2.955 0 01-.83-.83 2.951 2.951 0 01-.332-1.328V93.666c0-.664.221-1.217.664-1.66.443-.443.996-.664 1.66-.664.664 0 1.217.221 1.66.664.553.443.83.996.83 1.66v14.11h35.192c.664 0 1.217.221 1.66.664.553.443.83.996.83 1.66v22.576c0 .664-.277 1.217-.83 1.66-.443.443-.996.664-1.66.664zm59.923 1.992h-.332c-2.545 0-4.869-.332-6.972-.996-2.102-.553-3.873-1.383-5.312-2.49a51.522 51.522 0 01-3.486-3.486c-.996-1.107-1.826-2.435-2.49-3.984-.553-1.66-.996-2.877-1.328-3.652l-.83-3.32-.166-.996c-1.106-4.98-1.549-18.426-1.328-40.338v-7.304c0-19.92.886-32.37 2.656-37.35 2.214-6.64 5.81-9.96 10.79-9.96 3.099 0 5.534.775 7.304 2.324 1.771 1.55 3.265 4.15 4.482 7.802 1.55 5.09 2.324 16.6 2.324 34.528 0 17.264-.442 28.497-1.328 33.698-1.106 6.419-3.375 10.513-6.806 12.284-1.438.664-2.49.277-3.154-1.162-.664-1.549-.332-2.601.996-3.154 2.103-1.107 3.486-4.039 4.15-8.798.996-6.197 1.494-17.153 1.494-32.868 0-17.153-.774-28.165-2.324-33.034-.774-2.656-1.715-4.427-2.822-5.312-.996-.885-2.434-1.328-4.316-1.328-1.217 0-2.379.443-3.486 1.328-.996.885-1.936 2.6-2.822 5.146-1.66 4.648-2.49 16.6-2.49 35.856v7.304c-.221 21.248.222 34.362 1.328 39.342l.332.83c.332 1.66.609 2.933.83 3.818.332.775.886 1.937 1.66 3.486.775 1.549 1.66 2.767 2.656 3.652.996.775 2.435 1.494 4.316 2.158 1.882.664 4.04.996 6.474.996h.332c4.648 0 8.743-1.826 12.284-5.478 3.542-3.763 6.253-8.743 8.134-14.94 1.992-6.197 3.486-12.782 4.482-19.754.996-6.972 1.494-14.276 1.494-21.912 0-14.719-1.272-26.837-3.818-36.354-2.434-9.628-6.252-16.766-11.454-21.414-5.09-4.648-11.675-6.972-19.754-6.972-12.062 0-20.971 5.09-26.726 15.272-5.754 10.07-8.632 25.785-8.632 47.144 0 23.13 3.21 40.449 9.628 51.958.111 0 .277.221.498.664.332.443.664.941.996 1.494.332.553.72 1.107 1.162 1.66.443.443.609.996.498 1.66 0 .664-.221 1.217-.664 1.66-.442.443-1.051.664-1.826.664-.664-.111-1.162-.387-1.494-.83a35.65 35.65 0 01-3.154-4.482c-6.972-12.173-10.458-30.323-10.458-54.448 0-22.687 3.32-39.563 9.96-50.63C201.08 5.797 211.151.208 224.652.208c4.427 0 8.411.609 11.952 1.826 3.652 1.107 6.751 2.767 9.296 4.98a36.377 36.377 0 016.972 7.304c2.103 2.767 3.818 5.976 5.146 9.628a93.255 93.255 0 013.32 10.79c.886 3.541 1.55 7.47 1.992 11.786.443 4.205.72 8.134.83 11.786.222 3.652.332 7.525.332 11.62 0 8.521-.553 16.6-1.66 24.236-1.106 7.636-2.877 14.774-5.312 21.414-2.324 6.529-5.644 11.731-9.96 15.604-4.205 3.873-9.074 5.81-14.608 5.81zM302.346 7.014h-16.434v123.172h19.92v-79.68c0-.221.055-.498.166-.83.221-.332.442-.553.664-.664l.83-.498h.996c.221 0 .498.11.83.332.332.11.553.332.664.664l.332.166 36.852 70.384 2.656 4.15c1.328 2.103 2.822 3.652 4.482 4.648 1.77.885 4.426 1.328 7.968 1.328h8.3c.664 0 1.217.277 1.66.83.442.443.664.996.664 1.66 0 .664-.222 1.217-.664 1.66-.443.443-.996.664-1.66.664h-8.3c-3.984 0-7.304-.609-9.96-1.826-2.546-1.328-4.759-3.486-6.64-6.474l-2.656-3.984v-.166l-32.37-62.084v72.21c0 .664-.277 1.217-.83 1.66-.443.443-.996.664-1.66.664h-24.734c-.664 0-1.218-.221-1.66-.664-.443-.443-.664-.996-.664-1.66V4.524c0-.664.221-1.217.664-1.66.442-.443.996-.664 1.66-.664h18.924c2.766 0 5.146.443 7.138 1.328 2.102.775 3.762 1.826 4.98 3.154 1.328 1.328 2.6 3.099 3.818 5.312l49.966 90.47V7.014h-20.75v27.888c0 .664-.222 1.217-.664 1.66-.443.443-.996.664-1.66.664-.443 0-.886-.11-1.328-.332a2.959 2.959 0 01-.83-.83 2.04 2.04 0 01-.332-1.162V4.524c0-.664.221-1.217.664-1.66.553-.443 1.162-.664 1.826-.664h25.398c.664 0 1.217.221 1.66.664.442.443.664.996.664 1.66v107.568c0 .221-.111.498-.332.83a1 1 0 01-.664.664l-.166.166c-.332.221-.554.332-.664.332h-.664c-.332 0-.664-.111-.996-.332-.443-.221-.72-.443-.83-.664l-.166-.332-54.282-98.438c-1.55-2.767-3.154-4.648-4.814-5.644-1.55-1.107-3.874-1.66-6.972-1.66z" fill="#FF6A8E"/></svg>
